!!!COM: Anon.
!!!OTL: Arrorro
!! Maria Cadilla de Martinez,
!! Juegos Y Canciones Infantiles de Puerto Rico
!! Talleres Graficos, Cas Baldrich, Brau 93, San Juan, P.R.
!! 1940.  Derechos reservados de la Autora
!! page 167
!! Andantino
**kern
*clefG2
*k[]
*M2/4
=1-
8ee
8ee
8ee
8ee
=
4ee
4b
=
8ee
8ee
8ee
8ee
=
8cc
8b
4a
=
8dd
8dd
8dd
8cc
=
8b
8cc
8b
8a
=
4.b
8g
=
4a
8a
8cc'
=
4cc
8b
8cc
=
4cc
4b
=
2a
=
8b
4.a
=
4a
4r
==
*-
